packages/tokens/icons/cloudCircuits/size24Px.svg

<svg viewBox="0 0 24 24" fill="none" xmlns="http://www.w3.org/2000/svg" width="1em" height="1em"><path d="M5.5 18.5C5.5 19.0523 5.05228 19.5 4.5 19.5C3.94772 19.5 3.5 19.0523 3.5 18.5C3.5 17.9477 3.94772 17.5 4.5 17.5C5.05228 17.5 5.5 17.9477 5.5 18.5Z" stroke="currentColor"/><path d="M8.5 14.5V17.5C8.5 18.0523 8.05228 18.5 7.5 18.5H5.5" stroke="currentColor"/><path d="M18.5 18.5C18.5 19.0523 18.9477 19.5 19.5 19.5C20.0523 19.5 20.5 19.0523 20.5 18.5C20.5 17.9477 20.0523 17.5 19.5 17.5C18.9477 17.5 18.5 17.9477 18.5 18.5Z" stroke="currentColor"/><path d="M15.5 14.5V17.5C15.5 18.0523 15.9477 18.5 16.5 18.5H18.5" stroke="currentColor"/><path d="M12 14L12 19.5" stroke="currentColor"/><path d="M13 20.5C13 21.0523 12.5523 21.5 12 21.5C11.4477 21.5 11 21.0523 11 20.5C11 19.9477 11.4477 19.5 12 19.5C12.5523 19.5 13 19.9477 13 20.5Z" stroke="currentColor"/><path d="M18.1423 6.81354C18.1646 7.04274 18.3405 7.22709 18.5684 7.26005C20.2008 7.49613 21.5 8.99848 21.5 10.8636C21.5 11.6586 21.2476 12.5924 20.7539 13.3144C20.2676 14.0256 19.5743 14.5 18.6667 14.5H18.66H18.6532H18.6461H18.6387H18.6311H18.6233H18.6153H18.607H18.5985H18.5897H18.5808H18.5716L18.5621 14.5H18.5525H18.5426H18.5325H18.5221H18.5116H18.5008H18.4898H18.4786H18.4671H18.4555H18.4436H18.4315H18.4192H18.4066H18.3939H18.3809H18.3678H18.3544H18.3408H18.327H18.313H18.2988H18.2843H18.2697H18.2549H18.2398H18.2246H18.2091H18.1935H18.1776H18.1616H18.1453H18.1289H18.1123H18.0954H18.0784H18.0612H18.0437H18.0261H18.0083H17.9903H17.9722H17.9538H17.9352H17.9165H17.8976H17.8785H17.8592H17.8397H17.82H17.8002H17.7802H17.76H17.7396H17.719H17.6983H17.6774H17.6563H17.6351H17.6136H17.592H17.5703H17.5483H17.5262H17.5039H17.4815H17.4589H17.4361H17.4132H17.3901H17.3668H17.3434H17.3198H17.2961H17.2722H17.2481H17.2239H17.1995H17.175H17.1503H17.1255H17.1005H17.0754H17.0501H17.0246H16.9991H16.9733H16.9475H16.9214H16.8953H16.869H16.8425H16.8159H16.7892H16.7623H16.7353H16.7081H16.6808H16.6534H16.6259H16.5982H16.5703H16.5424H16.5143H16.4861H16.4577H16.4292H16.4006H16.3719H16.343H16.314H16.2849H16.2557H16.2263H16.1969H16.1673H16.1375H16.1077H16.0778H16.0477H16.0175H15.9872H15.9568H15.9263H15.8956H15.8649H15.834H15.8031H15.772H15.7408H15.7095H15.6781H15.6466H15.615H15.5833H15.5515H15.5196H15.4876H15.4555H15.4233H15.391H15.3586H15.3261H15.2935H15.2608H15.228H15.1952H15.1622H15.1292H15.0961H15.0628H15.0295H14.9961H14.9627H14.9291H14.8955H14.8617H14.8279H14.794H14.7601H14.726H14.6919H14.6577H14.6234H14.5891H14.5547H14.5202H14.4856H14.4509H14.4162H14.3815H14.3466H14.3117H14.2767H14.2417H14.2066H14.1714H14.1362H14.1009H14.0655H14.0301H13.9946H13.9591H13.9235H13.8879H13.8521H13.8164H13.7806H13.7447H13.7088H13.6728H13.6368H13.6008H13.5647H13.5285H13.4923H13.4561H13.4198H13.3834H13.3471H13.3107H13.2742H13.2377H13.2012H13.1646H13.128H13.0913H13.0547H13.018H12.9812H12.9444H12.9076H12.8708H12.8339H12.797H12.7601H12.7232H12.6862H12.6492H12.6122H12.5751H12.5381H12.501H12.4639H12.4268H12.3896H12.3525H12.3153H12.2781H12.2409H12.2037H12.1665H12.1292H12.092H12.0547H12.0175H11.9802H11.9429H11.9056H11.8683H11.831H11.7937H11.7564H11.7191H11.6818H11.6445H11.6072H11.5699H11.5326H11.4953H11.4581H11.4208H11.3835H11.3463H11.309H11.2718H11.2345H11.1973H11.1601H11.1229H11.0857H11.0486H11.0114H10.9743H10.9372H10.9001H10.863H10.826H10.789H10.752H10.715H10.678H10.6411H10.6042H10.5673H10.5305H10.4937H10.4569H10.4201H10.3834H10.3467H10.3101H10.2735H10.2369H10.2003H10.1638H10.1274H10.091H10.0546H10.0182H9.98193H9.94567H9.90946H9.87329H9.83717H9.8011H9.76508H9.7291H9.69318H9.6573H9.62148H9.58571H9.55H9.51434H9.47874H9.44319H9.4077H9.37227H9.3369H9.30159H9.26634H9.23115H9.19602H9.16096H9.12597H9.09104H9.05618H9.02139H8.98666H8.952H8.91742H8.88291H8.84847H8.8141H8.77981H8.74559H8.71145H8.67738H8.6434H8.60949H8.57566H8.54192H8.50826H8.47467H8.44118H8.40776H8.37444H8.3412H8.30804H8.27498H8.242H8.20912H8.17632H8.14362H8.11101H8.0785H8.04608H8.01375H7.98153H7.9494H7.91737H7.88543H7.8536H7.82187H7.79025H7.75872H7.7273H7.69599H7.66478H7.63368H7.60268H7.5718H7.54103L7.51036 14.5H7.47981H7.44937H7.41904H7.38883H7.35873H7.32875H7.29889H7.26915H7.23952H7.21001H7.18063H7.15137H7.12223H7.09321H7.06432H7.03555H7.00692H6.9784H6.95002H6.92177H6.89364H6.86565H6.83779H6.81006H6.78247H6.75501H6.72769H6.70051H6.67346H6.64655H6.61978H6.59315H6.56666H6.54032H6.51412H6.48806H6.46215H6.43638H6.41076H6.38529H6.35997H6.3348H6.30978H6.28491H6.26019H6.23563H6.21122H6.18697H6.16287H6.13893H6.11515H6.09153H6.06806H6.04476H6.02162H5.99865H5.97584H5.95319H5.93071H5.90839H5.88624H5.86426H5.84245H5.82081H5.79935H5.77805H5.75693H5.73598H5.71521H5.69461H5.67419H5.65394H5.63388H5.614H5.59429H5.57477H5.55543H5.53627H5.5173H5.49851H5.47991H5.4615H5.44327H5.42524H5.40739H5.38973H5.37227H5.355H5.33792H5.32104H5.30435H5.28786H5.27156H5.25547H5.23957H5.22387H5.20838H5.19309H5.178H5.16311H5.14843H5.13395H5.11968H5.10562H5.09177H5.07813H5.06469H5.05147H5.03846H5.02567H5.01308H5.00072H4.98857H4.97663H4.96492H4.95342H4.94214H4.93108H4.92025H4.90964H4.89925H4.88908H4.87914H4.86943H4.85994H4.85068H4.84165H4.83285H4.82429H4.81595H4.80785H4.79998H4.79234H4.78494H4.77778C3.54841 14.5 2.5 13.4306 2.5 12.0455C2.5 10.7931 3.36157 9.7932 4.43444 9.61856C4.63423 9.58604 4.7947 9.43627 4.8409 9.2392C5.27588 7.38407 6.84106 6.04545 8.66667 6.04545C8.75012 6.04545 8.8329 6.04823 8.91493 6.05368C9.14243 6.0688 9.35134 5.9281 9.42286 5.7116C10.0465 3.82355 11.7248 2.5 13.6667 2.5C15.968 2.5 17.9044 4.36451 18.1423 6.81354Z" stroke="currentColor" stroke-linejoin="round"/></svg>

<svg xmlns="http://www.w3.org/2000/svg" fill="none" viewBox="0 0 24 24" width="1em" height="1em"><path stroke="currentColor" d="M5.5 18.5a1 1 0 1 1-2 0 1 1 0 0 1 2 0Zm3-4v3a1 1 0 0 1-1 1h-2m13 0a1 1 0 1 0 2 0 1 1 0 0 0-2 0Zm-3-4v3a1 1 0 0 0 1 1h2M12 14v5.5m1 1a1 1 0 1 1-2 0 1 1 0 0 1 2 0Z"/><path stroke="currentColor" stroke-linejoin="round" d="M18.142 6.814a.5.5 0 0 0 .426.446c1.633.236 2.932 1.738 2.932 3.604 0 .795-.252 1.728-.746 2.45-.486.712-1.18 1.186-2.087 1.186H4.778c-1.23 0-2.278-1.07-2.278-2.454 0-1.253.862-2.253 1.934-2.427a.5.5 0 0 0 .407-.38c.435-1.855 2-3.194 3.826-3.194.083 0 .166.003.248.009a.5.5 0 0 0 .508-.342c.623-1.888 2.302-3.212 4.244-3.212 2.301 0 4.237 1.865 4.475 4.314Z"/></svg>
